X: 30165
T: Old Cuffe Street
R: reel
M: 4/4
K: Adorian
g2fg|:eAAg eAfA|eAAg (3ege dg|eAAg eAfA|1 gedB Agfg:|2 gedB cBAF||
|:G2Bd gabg|(3ege dB eBdB|G2Bd gabg|(3ege dB cBAB|
G2Bd gabg|edef gfga|bagf gfed|1 egdB cBAF:|2 egdB Agfg||

